mp-widget/img/flags/irn.svg

<?xml version="1.0" encoding="UTF-8"?>
<svg xmlns="http://www.w3.org/2000/svg" xmlns:xlink="http://www.w3.org/1999/xlink" width="630" height="360">
<rect width="630" height="360" fill="#da0000"/>
<rect width="630" height="240" fill="#fff"/>
<rect width="630" height="120" fill="#239f40"/>
<g transform="translate(8.4,100.4)">
<g id="tb4">
<g id="tb1" fill="none" stroke="#fff" stroke-width="2">
<path id="tbp1" d="M0,1H26M1,10V5H9V9H17V5H12M4,9H6M26,9H21V5H29M29,0V9H37V0M33,0V9" transform="scale(1.4)"/>
<path id="tbp2" d="M0,7H9M10,7H19" transform="scale(2.8)"/>
<use xlink:href="#tbp2" y="120"/>
<use xlink:href="#tbp1" y="145.2"/>
</g>
<g id="tb3">
<use xlink:href="#tb1" x="56"/>
<use xlink:href="#tb1" x="112"/>
<use xlink:href="#tb1" x="168"/>
</g>
</g>
<use xlink:href="#tb3" x="168"/>
<use xlink:href="#tb4" x="392"/>
</g>
<g fill="#da0000" transform="matrix(45,0,0,45,315,180)">
<g id="emblem_half">
<path d="M-0.54815,0.83638A0.912046,0.912046 0 0,0 0.328544,-0.722384A1,1 0 0,1 -0.54815,0.83638"/>
<path d="M0.618339,0.661409A0.763932,0.763932 0 0,0 0.421644,-0.741049A1,1 0 0,1 0.618339,0.661409"/>
<path d="M0,1 -0.05,0 0,-0.787278A0.309995,0.309995 0 0,0 0.118034,-0.688191V-0.100406L0.077809,0.892905z"/>
<path d="M-0.02,-0.85 0,-0.831217A0.14431,0.14431 0 0,0 0.252075,-0.967708A0.136408,0.136408 0 0,1 0,-0.924634"/>
</g>
<use xlink:href="#emblem_half" transform="scale(-1,1)"/>
</g>
</svg>

<svg xmlns="http://www.w3.org/2000/svg" xmlns:xlink="http://www.w3.org/1999/xlink" width="630" height="360"><path fill="#da0000" d="M0 0H630V360H0z"/><path fill="#fff" d="M0 0H630V240H0z"/><path fill="#239f40" d="M0 0H630V120H0z"/><g transform="translate(8.4 100.4)"><g id="e"><g id="c" fill="none" stroke="#fff" stroke-width="2"><path id="b" d="M0 1h26M1 10V5h8v4h8V5h-5M4 9h2m20 0h-5V5h8m0-5v9h8V0m-4 0v9" transform="scale(1.4)"/><path id="a" d="M0 7h9m1 0h9" transform="scale(2.8)"/><use xlink:href="#a" y="120"/><use xlink:href="#b" y="145.2"/></g><g id="d"><use xlink:href="#c" x="56"/><use xlink:href="#c" x="112"/><use xlink:href="#c" x="168"/></g></g><use xlink:href="#d" x="168"/><use xlink:href="#e" x="392"/></g><g fill="#da0000" transform="matrix(45 0 0 45 315 180)"><g id="f"><path d="M-.548.836A.912.912 0 0 0 .329-.722 1 1 0 0 1-.548.836"/><path d="M.618.661A.764.764 0 0 0 .422-.74 1 1 0 0 1 .618.661M0 1l-.05-1L0-.787a.31.31 0 0 0 .118.099V-.1l-.04.993zM-.02-.85L0-.831a.144.144 0 0 0 .252-.137A.136.136 0 0 1 0-.925"/></g><use xlink:href="#f" transform="scale(-1 1)"/></g></svg>
